_includes/icons/ios-bot.svg

<svg fill="#666" height="50" viewBox="0 0 50 50" width="50" xmlns="http://www.w3.org/2000/svg"><path d="m25 3c-2.207031 0-4 1.792969-4 4 0 1.859375 1.28125 3.410156 3 3.859375v3.140625h-8.96875c-4.429687 0-8.03125 3.601563-8.03125 8.03125v3.96875h-5v12h5v9h36v-9h5v-12h-5v-3.96875c0-4.429687-3.601562-8.03125-8.03125-8.03125h-8.96875v-3.140625c1.722656-.449219 3-2 3-3.859375 0-2.207031-1.792969-4-4-4zm0 2c1.101563 0 2 .898438 2 2 0 1.101563-.898437 2-2 2-1.101562 0-2-.898437-2-2 0-1.101562.898438-2 2-2zm-9.96875 11h19.9375c3.324219 0 6.03125 2.707031 6.03125 6.03125v22.96875h-6v-8h-20v8h-6v-22.96875c0-3.324219 2.707031-6.03125 6.03125-6.03125zm3.46875 6c-2.480469 0-4.5 2.019531-4.5 4.5s2.019531 4.5 4.5 4.5 4.5-2.019531 4.5-4.5-2.019531-4.5-4.5-4.5zm13 0c-2.480469 0-4.5 2.019531-4.5 4.5s2.019531 4.5 4.5 4.5 4.5-2.019531 4.5-4.5-2.019531-4.5-4.5-4.5zm-13 2c1.378906 0 2.5 1.121094 2.5 2.5s-1.121094 2.5-2.5 2.5-2.5-1.121094-2.5-2.5 1.121094-2.5 2.5-2.5zm13 0c1.378906 0 2.5 1.121094 2.5 2.5s-1.121094 2.5-2.5 2.5-2.5-1.121094-2.5-2.5 1.121094-2.5 2.5-2.5zm-27.5 4h3v8h-3zm39 0h3v8h-3zm-26 11h4v6h-4zm6 0h4v6h-4zm6 0h4v6h-4z"/></svg>

<svg xmlns="http://www.w3.org/2000/svg" viewBox="0 0 50 50" width="50" height="50" fill="#666"><path d="M 25 3 C 22.792969 3 21 4.792969 21 7 C 21 8.859375 22.28125 10.410156 24 10.859375 L 24 14 L 15.03125 14 C 10.601563 14 7 17.601563 7 22.03125 L 7 26 L 2 26 L 2 38 L 7 38 L 7 47 L 43 47 L 43 38 L 48 38 L 48 26 L 43 26 L 43 22.03125 C 43 17.601563 39.398438 14 34.96875 14 L 26 14 L 26 10.859375 C 27.722656 10.410156 29 8.859375 29 7 C 29 4.792969 27.207031 3 25 3 Z M 25 5 C 26.101563 5 27 5.898438 27 7 C 27 8.101563 26.101563 9 25 9 C 23.898438 9 23 8.101563 23 7 C 23 5.898438 23.898438 5 25 5 Z M 15.03125 16 L 34.96875 16 C 38.292969 16 41 18.707031 41 22.03125 L 41 45 L 35 45 L 35 37 L 15 37 L 15 45 L 9 45 L 9 22.03125 C 9 18.707031 11.707031 16 15.03125 16 Z M 18.5 22 C 16.019531 22 14 24.019531 14 26.5 C 14 28.980469 16.019531 31 18.5 31 C 20.980469 31 23 28.980469 23 26.5 C 23 24.019531 20.980469 22 18.5 22 Z M 31.5 22 C 29.019531 22 27 24.019531 27 26.5 C 27 28.980469 29.019531 31 31.5 31 C 33.980469 31 36 28.980469 36 26.5 C 36 24.019531 33.980469 22 31.5 22 Z M 18.5 24 C 19.878906 24 21 25.121094 21 26.5 C 21 27.878906 19.878906 29 18.5 29 C 17.121094 29 16 27.878906 16 26.5 C 16 25.121094 17.121094 24 18.5 24 Z M 31.5 24 C 32.878906 24 34 25.121094 34 26.5 C 34 27.878906 32.878906 29 31.5 29 C 30.121094 29 29 27.878906 29 26.5 C 29 25.121094 30.121094 24 31.5 24 Z M 4 28 L 7 28 L 7 36 L 4 36 Z M 43 28 L 46 28 L 46 36 L 43 36 Z M 17 39 L 21 39 L 21 45 L 17 45 Z M 23 39 L 27 39 L 27 45 L 23 45 Z M 29 39 L 33 39 L 33 45 L 29 45 Z"/></svg>
